!!!OTL: 1064. Raethsellied. / b) Antwort.
!!!ARE: Europa, Mitteleuropa, Deutschland, Schwedt a.d. Oder
!!!SCT: E1064A
!!!TXL: @@DE
!!!YEM: Copyright 1995, estate of Helmut Schaffrath.
**kern	**text
*ICvox	*
*M2/4	*
*k[f#]	*
*G:	*
=1	=1
{4g	Wenn
8g	mirs
8a	der
=2	=2
4b	Herr
8dd}	nicht
{8b	für
=3	=3
8bqq	.
4a	un-
8a	-gut
8a	will
=4	=4
4g	hal-
8d}	-ten,
{8d	ſo
=5	=5
8.b	will
16a	ich
8b	ihm
8cc	wohl
=6	=6
4dd	ſa-
8gg}	-gen
{8dd	den
=7	=7
8ddqq	.
4cc	wah-
4cc	-ren
=8	=8
4b	Grund
8r}	.
{8g	Das
=9	=9
8.dd	Häupt-
16dd	-lein
8dd	in
8dd	der
=10	=10
4ee	Wie-
8ee}	-gen
{8dd	iſt
=11	=11
8.ccL	oh-
16b	.
8ccJ	.
8ee	-ne
=12	=12
4.dd}	Ʒopf,
{8cc	der
=13	=13
8.b/	ba-
16g	-by-
8b	-lo-
8dd	-niſch
=14	=14
8.ddL	Thurm
16cc	.
8bJ}	.
{8a	iſt
=15	=15
4b/	oh-
4a	-ne
=16	=16
4g	Knopf.
8r}	.
{8g	Das
=17	=17
8.dd	Häupt-
16dd	-lein
8dd	in
8dd	der
=18	=18
4ee	Wie-
8ee}	-gen
{8dd	iſt
=19	=19
8.ccL	oh-
16b	.
8ccJ	.
8ee	-ne
=20	=20
4.dd}	Ʒopf,
{8cc	der
=21	=21
8.b/	ba-
16g	-by-
8b	-lo-
8dd	-niſch
=22	=22
8.ddL	Thurm
16cc	.
8bJ}	.
{8a	iſt
=23	=23
4b/	oh-
4a	-ne
=24	=24
4g	Knopf.
4r}	.
==	==
!!!AGN: Raetsel - Lied
!!!ONB: ESAC (Essen Associative Code) Database: ERK3
!!!AMT: simple duple
!!!AIN: vox
!!!EED: Helmut Schaffrath
!!!EEV: 1.0
!!!GTL: Raethsel-, Wett- und Wunschlieder, nebst Luegenmaerchen.
!!!URL-scan: https://rosdok.uni-rostock.de/mcrviewer/recordIdentifier/rosdok_ppn745177999/iview2/phys_0011.iview2?x=0&y=502.479153702443&scale=0.6479838709677419&rotation=0&layout=singlePageLayout
!!!ENC: Anna Maria Matuszewska
!!!EEV: 2024/12/23
*-	*-
